Numix/64/mimetypes/application-x-abiword.svg

<?xml version="1.0" encoding="UTF-8" standalone="no"?>
<svg
   xmlns:dc="http://purl.org/dc/elements/1.1/"
   xmlns:cc="http://creativecommons.org/ns#"
   xmlns:rdf="http://www.w3.org/1999/02/22-rdf-syntax-ns#"
   xmlns:svg="http://www.w3.org/2000/svg"
   xmlns="http://www.w3.org/2000/svg"
   xmlns:sodipodi="http://sodipodi.sourceforge.net/DTD/sodipodi-0.dtd"
   xmlns:inkscape="http://www.inkscape.org/namespaces/inkscape"
   width="64px"
   height="64px"
   viewBox="0 0 64 64"
   version="1.1"
   id="svg2"
   inkscape:version="0.91 r13725"
   sodipodi:docname="application-x-abiword.svg">
  <metadata
     id="metadata37">
    <rdf:RDF>
      <cc:Work
         rdf:about="">
        <dc:format>image/svg+xml</dc:format>
        <dc:type
           rdf:resource="http://purl.org/dc/dcmitype/StillImage" />
      </cc:Work>
    </rdf:RDF>
  </metadata>
  <defs
     id="defs35" />
  <sodipodi:namedview
     pagecolor="#ffffff"
     bordercolor="#666666"
     borderopacity="1"
     objecttolerance="10"
     gridtolerance="10"
     guidetolerance="10"
     inkscape:pageopacity="0"
     inkscape:pageshadow="2"
     inkscape:window-width="1366"
     inkscape:window-height="704"
     id="namedview33"
     showgrid="false"
     inkscape:zoom="1"
     inkscape:cx="24.998724"
     inkscape:cy="6.8776753"
     inkscape:window-x="0"
     inkscape:window-y="27"
     inkscape:window-maximized="1"
     inkscape:current-layer="svg2">
    <inkscape:grid
       type="xygrid"
       id="grid4165" />
  </sodipodi:namedview>
  <g
     id="surface1">
    <path
       style=" stroke:none;fill-rule:nonzero;fill:rgb(20.392157%,40.784314%,80.784314%);fill-opacity:1;"
       d="M 10.671875 0 C 9.296875 0 8 1.355469 8 2.789062 L 8 61.210938 C 8 62.566406 9.375 64 10.671875 64 L 53.328125 64 C 54.625 64 56 62.566406 56 61.210938 L 56 18 L 38 0 Z M 10.671875 0 "
       id="path5" />
    <path
       style=" stroke:none;fill-rule:nonzero;fill:rgb(0%,0%,0%);fill-opacity:0.196078;"
       d="M 42 18 L 56 32 L 56 18 Z M 42 18 "
       id="path7" />
    <path
       style=" stroke:none;fill-rule:nonzero;fill:rgb(100%,100%,100%);fill-opacity:0.392157;"
       d="M 38 0 L 55.984375 18 L 40.757812 18 C 39.410156 18 38 16.574219 38 15.226562 Z M 38 0 "
       id="path9" />
    <path
       style=" stroke:none;fill-rule:evenodd;fill:rgb(97.647059%,97.647059%,97.647059%);fill-opacity:1;"
       d="M 20 22 L 32 22 L 32 32 L 20 32 Z M 20 22 "
       id="path11" />
    <path
       style=" stroke:none;fill-rule:evenodd;fill:rgb(97.647059%,97.647059%,97.647059%);fill-opacity:1;"
       d="M 34 22 L 44 22 L 44 24 L 34 24 Z M 34 22 "
       id="path13" />
    <path
       style=" stroke:none;fill-rule:nonzero;fill:rgb(0%,0%,0%);fill-opacity:0.196078;"
       d="M 8 48 L 8 61.335938 C 8 62.632812 9.375 64 10.664062 64 L 53.335938 64 C 54.625 64 56 62.632812 56 61.335938 L 56 48 Z M 8 48 "
       id="path15" />
    <path
       style=" stroke:none;fill-rule:evenodd;fill:rgb(97.647059%,97.647059%,97.647059%);fill-opacity:1;"
       d="M 34 26 L 44 26 L 44 28 L 34 28 Z M 34 26 "
       id="path17" />
    <path
       style="fill:#ffffff;fill-opacity:1;fill-rule:nonzero;stroke:none"
       d="m 42.44985,55 c 0.467046,1.499523 0.996084,3.065529 1.456743,4.554679 C 43.889037,56.660463 43.804666,53.82221 43.78924,51 L 46.05,51 c -0.140022,3.735887 -0.325043,7.376832 -0.692297,11 l -2.026078,0 C 42.694854,60.334353 42.160723,58.708803 41.587164,57.129078 40.947027,58.802308 40.382304,60.389072 39.811411,62 l -2.026079,0 C 37.314143,58.30043 37.179801,54.62544 37.05,51 l 2.260759,0 c -0.04174,2.895185 -0.120135,5.725552 -0.140814,8.554679 C 39.675911,58.012282 40.150996,56.498435 40.69256,55"
       id="path19"
       inkscape:connector-curvature="0"
       sodipodi:nodetypes="ccccccccccccc" />
    <path
       style=" stroke:none;fill-rule:evenodd;fill:rgb(97.647059%,97.647059%,97.647059%);fill-opacity:1;"
       d="M 34 30 L 44 30 L 44 32 L 34 32 Z M 34 30 "
       id="path25" />
    <path
       style=" stroke:none;fill-rule:evenodd;fill:rgb(97.647059%,97.647059%,97.647059%);fill-opacity:1;"
       d="M 20 34 L 44 34 L 44 36 L 20 36 Z M 20 34 "
       id="path27" />
    <path
       style=" stroke:none;fill-rule:evenodd;fill:rgb(97.647059%,97.647059%,97.647059%);fill-opacity:1;"
       d="M 20 38 L 44 38 L 44 40 L 20 40 Z M 20 38 "
       id="path29" />
    <path
       style=" stroke:none;fill-rule:evenodd;fill:rgb(97.647059%,97.647059%,97.647059%);fill-opacity:1;"
       d="M 20 42 L 44 42 L 44 44 L 20 44 Z M 20 42 "
       id="path31" />
  </g>
  <path
     inkscape:connector-curvature="0"
     style="fill:#ffffff;fill-opacity:1;fill-rule:nonzero;stroke:none"
     d="m 36.1,58.613611 c 0,0.645027 -0.122079,1.194068 -0.362423,1.627924 -0.247973,0.437696 -0.58369,0.783247 -1.007153,1.048168 -0.408202,0.249564 -0.904148,0.437697 -1.480209,0.556719 C 32.681784,61.950087 32.071388,62 31.415213,62 30.896376,62 30.343205,61.96928 29.782404,61.9117 29.213973,61.86179 28.653172,61.788838 28.1,61.685173 l 0,-10.427928 c 0.457797,-0.07295 0.946113,-0.130542 1.48784,-0.176614 C 30.125751,51.023039 30.663662,51 31.182499,51 c 0.904149,0 1.632809,0.08063 2.20124,0.257243 0.568431,0.161252 1.010968,0.3801 1.331425,0.660379 0.320458,0.264922 0.534097,0.564399 0.656176,0.90227 0.110634,0.330191 0.167859,0.668062 0.175488,1.009773 -0.0076,0.506807 -0.144968,0.956022 -0.423461,1.351484 -0.274678,0.387784 -0.640916,0.702618 -1.106343,0.936825 0.808774,0.264921 1.361946,0.61815 1.640439,1.071204 C 35.955031,57.638392 36.1,58.114484 36.1,58.613611 m -5.630901,-1.458988 0,2.917977 c 0.167859,0.02687 0.354793,0.04223 0.545542,0.04991 0.202193,0.01536 0.400572,0.02304 0.59132,0.02304 0.274678,0 0.537912,-0.02304 0.793514,-0.05375 0.255604,-0.04991 0.480687,-0.122862 0.671436,-0.226526 0.209823,-0.115184 0.377682,-0.27644 0.507392,-0.468413 0.125894,-0.21117 0.190748,-0.468413 0.190748,-0.783247 0,-0.522164 -0.183119,-0.89459 -0.560801,-1.109598 -0.358607,-0.226528 -0.846924,-0.345551 -1.46495,-0.345551 l -1.274201,0 m 0.930854,-1.773822 c 0.59895,0 1.056747,-0.115184 1.369574,-0.34939 0.301384,-0.241885 0.461613,-0.572077 0.461613,-0.982897 0,-0.257243 -0.04577,-0.456894 -0.133524,-0.610472 -0.08774,-0.161256 -0.217454,-0.284118 -0.370053,-0.364746 -0.152598,-0.0883 -0.335717,-0.149739 -0.534096,-0.168937 -0.209824,-0.03839 -0.419647,-0.05375 -0.640915,-0.05375 -0.179304,0 -0.370053,0.0077 -0.560802,0.01536 -0.194564,0.01536 -0.362422,0.03072 -0.522651,0.05759 l 0,2.457244 0.930854,0"
     id="path15-8" />
  <path
     inkscape:connector-curvature="0"
     id="path3019"
     d="M 24.655469,62.1 23.989,59.262747 l -3.03,0 L 20.307812,62.1 17.8,62.1 c 1.009865,-3.824506 2.249191,-7.603731 3.453125,-11.1 l 2.625,0 c 1.318629,3.719549 2.462865,7.590805 3.371094,11.1 l -2.59375,0 m -2.148438,-8.971351 c -0.510502,1.512643 -0.80733,2.820719 -1.115031,4.318604 l 2.208,0 C 23.325832,55.88536 22.939845,54.578012 22.507031,53.128649"
     style="fill:#ffffff;fill-opacity:1;fill-rule:nonzero;stroke:none"
     sodipodi:nodetypes="ccccccccccccc" />
</svg>

<svg xmlns="http://www.w3.org/2000/svg" viewBox="0 0 64 64">
 <g>
  <path d="m 10.672 0 c -1.375 0 -2.672 1.355 -2.672 2.789 l 0 58.42 c 0 1.355 1.375 2.789 2.672 2.789 l 42.656 0 c 1.297 0 2.672 -1.434 2.672 -2.789 l 0 -43.21 l -18 -18 m -27.328 0" style="fill:#3468ce;fill-opacity:1;stroke:none;fill-rule:nonzero"/>
  <path d="m 42 18 l 14 14 l 0 -14 m -14 0" style="fill:#000;fill-opacity:0.196;stroke:none;fill-rule:nonzero"/>
  <path d="m 38 0 l 17.984 18 l -15.227 0 c -1.348 0 -2.758 -1.426 -2.758 -2.773 m 0 -15.227" style="fill:#fff;fill-opacity:0.392;stroke:none;fill-rule:nonzero"/>
  <path d="m 20 22 l 12 0 l 0 10 l -12 0 m 0 -10" style="fill:#f9f9f9;fill-opacity:1;stroke:none;fill-rule:evenodd"/>
  <path d="m 34 22 l 10 0 l 0 2 l -10 0 m 0 -2" style="fill:#f9f9f9;fill-opacity:1;stroke:none;fill-rule:evenodd"/>
  <path d="m 8 48 l 0 13.336 c 0 1.297 1.375 2.664 2.664 2.664 l 42.672 0 c 1.289 0 2.664 -1.367 2.664 -2.664 l 0 -13.336 m -48 0" style="fill:#000;fill-opacity:0.196;stroke:none;fill-rule:nonzero"/>
  <path d="m 34 26 l 10 0 l 0 2 l -10 0 m 0 -2" style="fill:#f9f9f9;fill-opacity:1;stroke:none;fill-rule:evenodd"/>
  <path d="m 42.45 55 c 0.467 1.5 0.996 3.066 1.457 4.555 c -0.018 -2.894 -0.102 -5.732 -0.117 -8.555 l 2.261 0 c -0.14 3.736 -0.325 7.377 -0.692 11 l -2.026 0 c -0.637 -1.666 -1.171 -3.291 -1.744 -4.871 -0.64 1.673 -1.205 3.26 -1.776 4.871 l -2.026 0 c -0.471 -3.7 -0.606 -7.375 -0.735 -11 l 2.261 0 c -0.042 2.895 -0.12 5.726 -0.141 8.555 c 0.506 -1.542 0.981 -3.056 1.523 -4.555" style="fill:#fff;fill-opacity:1;stroke:none;fill-rule:nonzero"/>
  <path d="m 34 30 l 10 0 l 0 2 l -10 0 m 0 -2" style="fill:#f9f9f9;fill-opacity:1;stroke:none;fill-rule:evenodd"/>
  <path d="m 20 34 l 24 0 l 0 2 l -24 0 m 0 -2" style="fill:#f9f9f9;fill-opacity:1;stroke:none;fill-rule:evenodd"/>
  <path d="m 20 38 l 24 0 l 0 2 l -24 0 m 0 -2" style="fill:#f9f9f9;fill-opacity:1;stroke:none;fill-rule:evenodd"/>
  <path d="m 20 42 l 24 0 l 0 2 l -24 0 m 0 -2" style="fill:#f9f9f9;fill-opacity:1;stroke:none;fill-rule:evenodd"/>
 </g>
 <path d="m 36.1 58.61 c 0 0.645 -0.122 1.194 -0.362 1.628 -0.248 0.438 -0.584 0.783 -1.01 1.048 -0.408 0.25 -0.904 0.438 -1.48 0.557 c -0.568 0.104 -1.179 0.154 -1.835 0.154 -0.519 0 -1.072 -0.031 -1.633 -0.088 -0.568 -0.05 -1.129 -0.123 -1.682 -0.227 l 0 -10.428 c 0.458 -0.073 0.946 -0.131 1.488 -0.177 c 0.538 -0.058 1.076 -0.081 1.595 -0.081 c 0.904 0 1.633 0.081 2.201 0.257 0.568 0.161 1.01 0.38 1.331 0.66 0.32 0.265 0.534 0.564 0.656 0.902 0.111 0.33 0.168 0.668 0.175 1.01 -0.008 0.507 -0.145 0.956 -0.423 1.351 -0.275 0.388 -0.641 0.703 -1.106 0.937 0.809 0.265 1.362 0.618 1.64 1.071 c 0.298 0.449 0.443 0.925 0.443 1.424 m -5.631 -1.459 0 2.918 c 0.168 0.027 0.355 0.042 0.546 0.05 0.202 0.015 0.401 0.023 0.591 0.023 0.275 0 0.538 -0.023 0.794 -0.054 0.256 -0.05 0.481 -0.123 0.671 -0.227 0.21 -0.115 0.378 -0.276 0.507 -0.468 0.126 -0.211 0.191 -0.468 0.191 -0.783 0 -0.522 -0.183 -0.895 -0.561 -1.11 -0.359 -0.227 -0.847 -0.346 -1.465 -0.346 l -1.274 0 m 0.931 -1.774 c 0.599 0 1.057 -0.115 1.37 -0.349 0.301 -0.242 0.462 -0.572 0.462 -0.983 0 -0.257 -0.046 -0.457 -0.134 -0.61 -0.088 -0.161 -0.217 -0.284 -0.37 -0.365 -0.153 -0.088 -0.336 -0.15 -0.534 -0.169 -0.21 -0.038 -0.42 -0.054 -0.641 -0.054 -0.179 0 -0.37 0.008 -0.561 0.015 -0.195 0.015 -0.362 0.031 -0.523 0.058 l 0 2.457 0.931 0" style="fill:#fff;fill-opacity:1;stroke:none;fill-rule:nonzero"/>
 <path d="m 24.655 62.1 -0.666 -2.837 l -3.03 0 l -0.651 2.837 -2.508 0 c 1.01 -3.825 2.249 -7.604 3.453 -11.1 l 2.625 0 c 1.319 3.72 2.463 7.591 3.371 11.1 l -2.594 0 m -2.148 -8.971 c -0.511 1.513 -0.807 2.821 -1.115 4.319 l 2.208 0 c -0.274 -1.562 -0.66 -2.869 -1.093 -4.319" style="fill:#fff;fill-opacity:1;stroke:none;fill-rule:nonzero"/>
</svg>
